<?xml version="1.0" encoding="UTF-8"?>
<map version="1.10" tiledversion="1.12.1" orientation="orthogonal" renderorder="right-down" width="16" height="9" tilewidth="32" tileheight="32" infinite="0" nextlayerid="21" nextobjectid="176">
 <tileset firstgid="1" name="wallfloor" tilewidth="32" tileheight="32" tilecount="300" columns="20" objectalignment="bottom">
  <image source="real_tileset.png" width="640" height="480"/>
 </tileset>
 <tileset firstgid="301" source="wax_texture.tsx"/>
 <tileset firstgid="319" source="wallfloor.tsx"/>
 <layer id="4" name="Wall" width="16" height="9" locked="1">
  <data encoding="csv">
362,362,28,23,23,23,23,23,23,23,23,23,341,345,362,362,
362,362,6,42,42,42,42,42,42,42,42,42,360,344,362,362,
362,362,6,43,43,43,43,43,43,43,43,43,361,344,362,362,
362,362,6,0,0,0,0,0,0,0,0,0,0,26,362,362,
362,362,6,0,0,0,0,0,0,0,0,0,0,21,362,362,
362,362,6,0,0,0,0,0,0,0,0,0,0,0,362,362,
362,362,6,0,0,0,0,0,0,0,0,0,0,1,362,362,
362,362,324,0,0,0,0,0,0,0,0,0,0,26,362,362,
362,362,326,320,320,320,320,320,320,320,320,320,320,325,362,362
</data>
 </layer>
 <layer id="5" name="Floor" width="16" height="9" locked="1">
  <data encoding="csv">
0,0,0,0,0,0,0,0,0,0,0,0,0,0,0,0,
0,0,0,0,0,0,0,0,0,0,0,0,0,0,0,0,
0,0,0,0,0,0,0,0,0,0,0,0,0,0,0,0,
0,0,0,41,41,41,41,41,41,41,41,41,359,0,0,0,
0,0,0,41,41,41,41,41,41,41,41,41,359,0,0,0,
0,0,0,41,41,41,41,41,41,41,41,41,359,41,0,0,
0,0,0,41,41,41,41,41,41,41,41,41,359,0,0,0,
0,0,0,359,359,359,359,359,359,359,359,359,359,0,0,0,
0,0,0,0,0,0,0,0,0,0,0,0,0,0,0,0
</data>
 </layer>
 <layer id="16" name="Wax_Texture" width="16" height="9" locked="1">
  <data encoding="csv">
0,0,0,0,0,0,0,0,0,0,0,0,0,0,0,0,
0,0,0,301,302,303,304,305,306,307,308,309,308,0,0,0,
0,0,0,310,311,312,313,314,315,316,317,318,317,0,0,0,
0,0,0,0,0,0,0,0,0,0,0,0,0,0,0,0,
0,0,0,0,0,0,0,0,0,0,0,0,0,0,0,0,
0,0,0,0,0,0,0,0,0,0,0,0,0,0,0,0,
0,0,0,0,0,0,0,0,0,0,0,0,0,0,0,0,
0,0,0,0,0,0,0,0,0,0,0,0,0,0,0,0,
0,0,0,0,0,0,0,0,0,0,0,0,0,0,0,0
</data>
 </layer>
 <layer id="18" name="Cocoon1" width="16" height="9" locked="1">
  <data encoding="csv">
0,0,0,0,0,0,0,0,0,0,0,0,0,0,0,0,
0,0,0,0,0,0,0,0,0,0,0,0,0,0,0,0,
0,0,0,0,0,0,0,0,0,124,0,0,0,0,0,0,
0,0,0,0,0,0,0,0,0,144,0,0,0,0,0,0,
0,0,0,0,0,0,161,162,163,164,0,0,0,0,0,0,
0,0,0,0,0,0,0,0,0,0,0,0,0,0,0,0,
0,0,0,0,0,0,0,0,0,0,0,0,0,0,0,0,
0,0,0,0,161,162,163,164,161,162,163,164,0,0,0,0,
0,0,0,0,0,0,0,0,0,0,0,0,0,0,0,0
</data>
 </layer>
 <layer id="19" name="Cocoon2" width="16" height="9" locked="1">
  <data encoding="csv">
0,0,0,0,0,0,0,0,0,0,0,0,0,0,0,0,
0,0,0,0,0,0,0,0,0,0,0,0,0,0,0,0,
0,0,0,0,0,0,0,0,0,0,0,0,0,0,0,0,
0,0,0,0,0,0,0,0,0,0,0,0,0,0,0,0,
0,0,0,0,0,0,0,0,0,0,0,0,0,0,0,0,
0,0,0,0,0,0,0,0,0,0,0,0,0,0,0,0,
0,0,0,0,0,0,0,0,0,0,0,0,0,0,0,0,
0,0,0,0,0,0,0,0,0,0,0,0,0,0,0,0,
0,0,0,0,0,0,0,0,0,0,0,0,0,0,0,0
</data>
 </layer>
 <objectgroup id="12" name="Cocoon_Collision" locked="1">
  <object id="129" name="Cocoon_Collision" x="212" y="128" width="76" height="22">
   <capsule/>
  </object>
  <object id="130" name="Cocoon_Collision" x="148" y="224" width="76" height="22">
   <capsule/>
  </object>
  <object id="131" name="Cocoon_Collision" x="276" y="224" width="76" height="22">
   <capsule/>
  </object>
 </objectgroup>
 <objectgroup id="15" name="Wall_Collision" locked="1">
  <object id="141" x="416" y="192" width="11" height="64"/>
  <object id="143" x="85" y="256" width="342" height="11"/>
  <object id="145" x="85" y="32" width="11" height="224"/>
  <object id="150" x="416" y="32" width="11" height="128"/>
  <object id="151" x="96" y="64" width="320" height="32"/>
  <object id="154" x="416" y="149" width="32" height="11"/>
  <object id="166" x="446" y="160" width="2" height="32"/>
  <object id="167" x="416" y="192" width="32" height="11"/>
 </objectgroup>
 <objectgroup id="13" name="Player_Spawn" locked="1">
  <object id="132" name="Player_Spawn" x="245" y="180">
   <point/>
  </object>
 </objectgroup>
 <objectgroup id="14" name="Ritual_Chamber" locked="1">
  <object id="156" name="Ritual_Chamber.tmx" x="416" y="160" width="31.3746" height="31.1405"/>
 </objectgroup>
 <objectgroup id="17" name="SpawnPoints" locked="1">
  <object id="158" name="Ritual_Chamber.tmx" x="426" y="181">
   <point/>
  </object>
 </objectgroup>
 <layer id="20" name="Overhead" width="16" height="9" locked="1">
  <data encoding="csv">
0,0,0,0,0,0,0,0,0,0,0,0,0,0,0,0,
0,0,0,0,0,0,0,0,0,0,0,0,0,0,0,0,
0,0,0,0,0,0,439,440,441,442,0,0,0,0,0,0,
0,0,0,0,0,0,459,460,461,462,0,0,0,0,0,0,
0,0,0,0,0,0,0,0,0,0,0,0,0,0,0,0,
0,0,0,0,439,440,441,442,439,440,441,442,0,0,0,0,
0,0,0,0,459,460,461,462,459,460,461,462,0,0,0,0,
0,0,0,0,0,0,0,0,0,0,0,0,0,0,0,0,
0,0,0,0,0,0,0,0,0,0,0,0,0,0,0,0
</data>
 </layer>
</map>
