<?xml version="1.0" encoding="UTF-8"?>
<map version="1.10" tiledversion="1.12.0" orientation="orthogonal" renderorder="right-down" width="22" height="9" tilewidth="32" tileheight="32" infinite="0" nextlayerid="31" nextobjectid="78">
 <tileset firstgid="1" source="wallfloor.tsx"/>
 <tileset firstgid="301" source="stone.tsx"/>
 <layer id="1" name="Wall" width="22" height="9" locked="1">
  <data encoding="csv">
66,102,102,102,102,102,102,102,102,102,102,102,102,102,102,102,102,102,102,102,102,86,
103,63,63,63,63,63,63,63,63,63,63,63,63,63,63,63,63,63,63,63,63,83,
103,64,64,64,64,64,64,64,64,64,64,64,64,64,64,64,64,64,64,64,64,83,
103,0,0,0,0,0,0,0,0,0,0,0,0,0,0,0,0,0,0,0,0,101,
104,0,0,0,0,0,0,0,0,0,0,0,0,0,0,0,0,0,0,0,0,0,
0,0,0,0,0,0,0,0,0,0,0,0,0,0,0,0,0,0,0,0,0,81,
84,0,0,0,0,0,0,0,0,0,0,0,0,0,0,0,0,0,0,0,0,83,
103,0,0,0,0,0,0,0,0,0,0,0,0,0,0,0,0,0,0,0,0,83,
105,82,82,82,82,82,82,82,82,84,0,81,82,82,82,82,82,82,82,82,82,106
</data>
 </layer>
 <layer id="2" name="Ground" width="22" height="9" locked="1">
  <data encoding="csv">
0,0,0,0,0,0,0,0,0,0,0,0,0,0,0,0,0,0,0,0,0,0,
0,0,0,0,0,0,0,0,0,0,0,0,0,0,0,0,0,0,0,0,0,0,
0,0,0,0,0,0,0,0,0,0,0,0,0,0,0,0,0,0,0,0,0,0,
0,61,61,61,61,61,61,61,61,61,61,61,61,61,61,61,61,61,61,61,61,0,
0,61,61,61,61,61,61,61,61,61,61,61,61,61,61,61,61,61,61,61,61,61,
61,61,61,61,61,61,61,61,61,61,61,61,61,61,61,61,61,61,61,61,61,0,
0,61,61,61,61,61,61,61,61,61,61,61,61,61,61,61,61,61,61,61,61,0,
0,61,61,61,61,61,61,61,61,61,61,61,61,61,61,61,61,61,61,61,61,0,
0,0,0,0,0,0,0,0,0,0,61,0,0,0,0,0,0,0,0,0,0,0
</data>
 </layer>
 <layer id="3" name="Door" width="22" height="9" locked="1">
  <data encoding="csv">
0,0,0,0,0,0,0,0,0,0,0,0,0,0,0,0,0,0,0,0,0,0,
0,0,0,0,0,0,0,0,0,0,0,0,0,0,0,0,65,0,0,0,0,0,
0,0,0,0,0,0,0,0,0,0,0,0,0,0,0,0,85,0,0,0,0,0,
0,0,0,0,0,0,0,0,0,0,0,0,0,0,0,0,0,0,0,0,0,0,
0,0,0,0,0,0,0,0,0,0,0,0,0,0,0,0,0,0,0,0,0,0,
0,0,0,0,0,0,0,0,0,0,0,0,0,0,0,0,0,0,0,0,0,0,
0,0,0,0,0,0,0,0,0,0,0,0,0,0,0,0,0,0,0,0,0,0,
0,0,0,0,0,0,0,0,0,0,0,0,0,0,0,0,0,0,0,0,0,0,
0,0,0,0,0,0,0,0,0,0,0,0,0,0,0,0,0,0,0,0,0,0
</data>
 </layer>
 <layer id="27" name="Stone" width="22" height="9">
  <data encoding="csv">
0,0,0,0,0,0,0,0,0,0,0,0,0,0,0,0,0,0,0,0,0,0,
0,0,0,0,0,0,0,0,0,0,0,0,0,0,0,0,0,0,0,0,0,0,
0,0,0,0,0,0,0,0,0,0,0,0,0,0,0,0,0,0,0,0,0,0,
0,0,0,0,0,0,0,0,0,0,0,0,0,0,0,0,0,0,0,0,0,0,
0,0,319,0,0,0,0,0,319,0,0,0,0,0,319,0,0,0,0,0,0,0,
0,0,0,0,0,0,0,0,0,0,0,0,0,0,0,0,0,0,319,0,0,0,
0,0,0,0,0,319,0,0,0,0,0,0,319,0,0,0,0,0,0,0,0,0,
0,0,0,0,0,0,0,0,0,0,0,0,0,0,0,0,0,0,0,0,0,0,
0,0,0,0,0,0,0,0,0,0,0,0,0,0,0,0,0,0,0,0,0,0
</data>
 </layer>
 <objectgroup id="5" name="Wall_Collision">
  <object id="23" x="352" y="256" width="352" height="32"/>
  <object id="25" x="672" y="160" width="32" height="96"/>
  <object id="26" x="672" y="32" width="32" height="96"/>
  <object id="28" x="32" y="256" width="288" height="32"/>
  <object id="29" x="0" y="192" width="32" height="76"/>
  <object id="30" x="0" y="20" width="32" height="140"/>
  <object id="33" x="32" y="64" width="480" height="32"/>
  <object id="34" x="544" y="64" width="128" height="32"/>
  <object id="67" x="699" y="128" width="5" height="32"/>
  <object id="68" x="0" y="160" width="5" height="32"/>
  <object id="69" x="320" y="283" width="32" height="5"/>
  <object id="70" x="480" y="32" width="96" height="32"/>
 </objectgroup>
 <objectgroup id="28" name="Guards">
  <object id="67" name="guard_1" x="98" y="183.5">
   <polyline points="7,8 111.502,-22.4842 190.97,15.1125 288.994,-22.6058 439.5,16.5"/>
  </object>
  <object id="69" name="guard_2" x="246.5" y="111.5" visible="0">
   <polygon points="-10.5,-3 -2.5,115 -72.5036,127.946 -135,112 -106,27.5 10.7992,81.257 153.999,61.171 266,75 265,0.5 187.54,0.170485"/>
  </object>
  <object id="70" name="guard_3" x="612" y="127" visible="0">
   <polygon points="20,-10.5 -146.494,-20.3569 -250,-9 -247,114 -151.5,111.5 -168.782,66.0429 -196,-4 -144.955,-21.5898 -95,-3.5 -108,83.5 19.5,83"/>
  </object>
 </objectgroup>
 <objectgroup id="6" name="Stone_Collision">
  <object id="42" x="64.0737" y="128.001" width="32" height="30.9993" rotation="1.0564"/>
  <object id="71" x="256.074" y="128.001" width="32" height="30.9993" rotation="1.0564"/>
  <object id="72" x="160.085" y="191.411" width="32" height="31.5893" rotation="1.0564"/>
  <object id="73" x="384.074" y="192.001" width="32" height="30.9993" rotation="1.0564"/>
  <object id="74" x="448" y="128" width="32" height="31.9946" rotation="1.0564"/>
  <object id="75" x="576.074" y="160.001" width="32" height="30.9993" rotation="1.0564"/>
 </objectgroup>
 <objectgroup id="26" name="Ritual_Chamber">
  <object id="66" name="Ritual_Chamber.tmx" x="512" y="64" width="32" height="32"/>
 </objectgroup>
 <objectgroup id="7" name="Disposal_Chamber" locked="1">
  <object id="56" name="Disposal.tmx" x="320" y="256" width="32" height="32"/>
 </objectgroup>
 <objectgroup id="8" name="Queen_Chamber">
  <object id="54" name="Queen_Chamber.tmx" x="672" y="128" width="32" height="32"/>
 </objectgroup>
 <objectgroup id="9" name="Library_Chamber">
  <object id="57" name="Library.tmx" x="0" y="160" width="32" height="32"/>
 </objectgroup>
 <objectgroup id="10" name="SpawnPoints">
  <object id="60" name="Ritual_Chamber.tmx" x="528" y="112">
   <point/>
  </object>
  <object id="63" name="Library.tmx" x="15" y="181">
   <point/>
  </object>
  <object id="64" name="Library.tmx" x="330" y="272">
   <point/>
  </object>
  <object id="64" name="Disposal.tmx" x="330" y="272">
   <point/>
  </object>
  <object id="65" name="Queen_Chamber.tmx" x="665.655" y="145.41">
   <point/>
  </object>
 </objectgroup>
 <objectgroup id="30" name="Doors">
  <object id="77" name="door_exit" x="320" y="258" width="32" height="28">
   <properties>
    <property name="keyName" value="gold_key"/>
    <property name="requiresKey" type="bool" value="true"/>
   </properties>
  </object>
 </objectgroup>
 <layer id="28" name="Overhead" width="22" height="9">
  <data encoding="csv">
0,0,0,0,0,0,0,0,0,0,0,0,0,0,0,0,0,0,0,0,0,0,
0,0,0,0,0,0,0,0,0,0,0,0,0,0,0,0,0,0,0,0,0,0,
0,0,303,0,0,0,0,0,303,0,0,0,0,0,303,0,0,0,0,0,0,0,
0,0,311,0,0,0,0,0,311,0,0,0,0,0,311,0,0,0,303,0,0,0,
0,0,0,0,0,303,0,0,0,0,0,0,303,0,0,0,0,0,311,0,0,0,
0,0,0,0,0,311,0,0,0,0,0,0,311,0,0,0,0,0,0,0,0,0,
0,0,0,0,0,0,0,0,0,0,0,0,0,0,0,0,0,0,0,0,0,0,
0,0,0,0,0,0,0,0,0,0,0,0,0,0,0,0,0,0,0,0,0,0,
0,0,0,0,0,0,0,0,0,0,0,0,0,0,0,0,0,0,0,0,0,0
</data>
 </layer>
</map>
