<?xml version="1.0" encoding="UTF-8"?>
<map version="1.10" tiledversion="1.12.1" orientation="orthogonal" renderorder="right-down" width="11" height="11" tilewidth="32" tileheight="32" infinite="0" nextlayerid="19" nextobjectid="99">
 <tileset firstgid="1" source="wallfloor.tsx"/>
 <tileset firstgid="301" source="wax_texture.tsx"/>
 <tileset firstgid="319" source="bookself.tsx"/>
 <layer id="1" name="Wall" width="11" height="11">
  <data encoding="csv">
28,23,23,23,23,23,23,23,23,23,27,
6,42,42,42,42,42,42,42,42,42,26,
6,43,43,43,43,43,43,43,43,43,26,
6,0,0,0,0,0,0,0,0,0,26,
6,0,0,0,0,0,0,0,0,0,26,
6,0,0,0,0,0,0,0,0,0,26,
6,0,0,0,0,0,0,0,0,0,26,
6,0,0,0,0,0,0,0,0,0,26,
6,0,0,0,0,0,0,0,0,0,26,
6,0,0,0,0,0,0,0,0,0,26,
8,2,2,2,2,2,2,2,2,2,7
</data>
 </layer>
 <objectgroup id="17" name="Pushable">
  <object id="73" x="98.2847" y="291.376" width="27.3981" height="24.3538"/>
  <object id="74" x="130.032" y="291.811" width="28.2678" height="24.3539"/>
  <object id="75" x="162.214" y="290.941" width="26.5283" height="24.7887"/>
  <object id="76" x="226.143" y="291.811" width="27.3981" height="23.919"/>
  <object id="77" x="257.89" y="291.376" width="27.833" height="24.7887"/>
  <object id="78" x="164.823" y="263.978" width="21.7445" height="16.9607"/>
  <object id="79" x="193.961" y="259.629" width="27.398" height="24.7887"/>
  <object id="80" x="291.305" y="228.521" width="26.3464" height="23.7371"/>
  <object id="81" x="161.779" y="227.447" width="27.3981" height="24.7887"/>
  <object id="82" x="97.8502" y="227.883" width="28.2679" height="23.919"/>
  <object id="83" x="66.1032" y="196.135" width="27.398" height="23.0492"/>
  <object id="84" x="130.032" y="196.136" width="26.9632" height="24.3538"/>
  <object id="85" x="34.3563" y="164.388" width="27.3981" height="23.4841"/>
  <object id="86" x="66.1033" y="163.519" width="27.3981" height="24.3538"/>
  <object id="87" x="98.2848" y="164.389" width="27.833" height="23.4841"/>
  <object id="88" x="226.578" y="163.954" width="26.9632" height="24.7887"/>
  <object id="89" x="257.89" y="163.954" width="27.833" height="23.4841"/>
  <object id="90" x="193.74" y="131.914" width="27.6511" height="23.7371"/>
  <object id="91" x="163.044" y="130.609" width="28.086" height="24.172"/>
  <object id="92" x="34.7912" y="131.337" width="26.9632" height="24.7888"/>
  <object id="93" x="97.4149" y="100.025" width="30.0074" height="23.9189"/>
  <object id="94" x="130.467" y="100.025" width="26.9632" height="23.0492"/>
  <object id="95" x="193.091" y="100.025" width="28.7028" height="23.0492"/>
  <object id="96" x="225.74" y="99.7396" width="27.6511" height="23.3022"/>
 </objectgroup>
 <layer id="2" name="Floor" width="11" height="11">
  <data encoding="csv">
0,0,0,0,0,0,0,0,0,0,0,
0,0,0,0,0,0,0,0,0,0,0,
0,0,0,0,0,0,0,0,0,0,0,
0,41,41,41,41,41,41,41,41,41,0,
0,41,41,41,41,41,41,41,41,41,0,
0,41,5,41,41,41,41,41,41,41,0,
0,41,41,41,41,41,41,41,41,41,0,
0,41,41,41,41,41,41,41,41,41,0,
0,41,41,41,41,41,41,41,41,41,0,
0,41,41,41,41,41,41,41,41,41,0,
0,0,0,0,0,0,0,0,0,0,0
</data>
 </layer>
 <layer id="14" name="Floor_Hide" width="11" height="11">
  <data encoding="csv">
0,0,0,0,0,0,0,0,0,0,0,
0,0,0,0,0,0,0,0,0,0,0,
0,0,0,0,0,0,0,0,0,0,0,
0,0,0,0,0,0,0,0,0,0,0,
0,0,0,0,0,0,0,0,0,0,0,
0,0,41,0,0,0,0,0,0,0,0,
0,0,0,0,0,0,0,0,0,0,0,
0,0,0,0,0,0,0,0,0,0,0,
0,0,0,0,0,0,0,0,0,0,0,
0,0,0,0,0,0,0,0,0,0,0,
0,0,0,0,0,0,0,0,0,0,0
</data>
 </layer>
 <objectgroup id="18" name="Hide_Trigger">
  <object id="98" name="hide_trigger" x="288" y="288" width="32" height="32"/>
 </objectgroup>
 <layer id="13" name="Door" width="11" height="11">
  <data encoding="csv">
0,0,0,0,0,0,0,0,0,0,0,
0,0,0,0,0,25,0,0,0,0,0,
0,0,0,0,0,45,0,0,0,0,0,
0,0,0,0,0,0,0,0,0,0,0,
0,0,0,0,0,0,0,0,0,0,0,
0,0,0,0,0,0,0,0,0,0,0,
0,0,0,0,0,0,0,0,0,0,0,
0,0,0,0,0,0,0,0,0,0,0,
0,0,0,0,0,0,0,0,0,0,0,
0,0,0,0,0,0,0,0,0,0,0,
0,0,0,0,0,0,0,0,0,0,0
</data>
 </layer>
 <layer id="13" name="Small_Cocon" width="11" height="11">
  <data encoding="csv">
0,0,0,0,0,0,0,0,0,0,0,
0,0,0,0,0,0,0,0,0,0,0,
0,0,0,0,0,0,0,0,0,0,0,
0,0,0,221,221,0,221,221,0,0,0,
0,221,0,0,0,221,221,0,0,0,0,
0,221,221,221,0,0,0,221,221,0,0,
0,0,221,0,221,263,0,0,0,0,0,
0,0,0,221,0,221,0,0,0,221,0,
0,0,0,0,0,221,221,0,0,0,0,
0,0,0,221,221,221,0,221,221,0,0,
0,0,0,0,0,0,0,0,0,0,0
</data>
 </layer>
 <layer id="15" name="Big_Cocoon1" width="11" height="11">
  <data encoding="csv">
0,0,0,0,0,0,0,0,0,0,0,
0,0,0,0,0,0,0,0,0,0,0,
0,0,0,0,0,0,0,0,0,0,0,
0,0,0,0,0,0,0,0,0,0,0,
0,0,0,0,0,0,0,0,0,0,0,
0,0,0,0,0,0,0,0,0,0,0,
0,223,224,0,0,0,0,0,0,0,0,
0,243,244,0,0,0,0,0,0,0,0,
0,0,0,0,0,0,0,0,0,0,0,
0,0,0,0,0,0,0,0,0,0,0,
0,0,0,0,0,0,0,0,0,0,0
</data>
 </layer>
 <layer id="8" name="Big_Cocoon2" width="11" height="11">
  <data encoding="csv">
0,0,0,0,0,0,0,0,0,0,0,
0,0,0,0,0,0,0,0,0,0,0,
0,223,224,0,0,0,0,0,223,224,0,
0,243,244,223,224,0,0,0,243,244,0,
0,0,0,243,244,0,0,0,0,0,0,
0,0,0,0,0,0,223,224,0,0,0,
0,0,0,0,0,0,243,244,0,0,0,
0,0,223,224,225,0,0,0,0,0,0,
0,0,243,244,245,0,0,0,0,0,0,
0,0,0,0,0,0,0,0,0,0,0,
0,0,0,0,0,0,0,0,0,0,0
</data>
 </layer>
 <layer id="10" name="Big_Cocoon3" width="11" height="11">
  <data encoding="csv">
0,0,0,0,0,0,0,0,0,0,0,
0,0,0,0,0,0,0,0,0,0,0,
0,0,0,0,0,0,0,0,0,0,0,
0,0,0,0,0,0,0,223,224,0,0,
0,0,0,0,0,0,0,243,244,0,0,
0,0,0,0,0,0,0,0,0,0,0,
0,0,0,0,0,0,0,0,0,0,0,
0,0,0,0,0,0,0,0,0,0,0,
0,223,224,0,0,0,0,0,0,0,0,
0,243,244,0,0,0,0,0,0,0,0,
0,0,0,0,0,0,0,0,0,0,0
</data>
 </layer>
 <objectgroup id="16" name="Big_Cocoon_Collision">
  <object id="44" x="230.294" y="129.956" width="53.1914" height="21.1557">
   <capsule/>
  </object>
  <object id="97" x="196.807" y="195.19" width="53.1914" height="21.1557">
   <capsule/>
  </object>
  <object id="45" x="260.517" y="99.1294" width="53.7958" height="18.7379">
   <capsule/>
  </object>
  <object id="46" x="36.8713" y="99.1294" width="51.378" height="19.3423">
   <capsule/>
  </object>
  <object id="47" x="101.547" y="127.538" width="50.7736" height="22.969">
   <capsule/>
  </object>
  <object id="48" x="36.8713" y="224.854" width="47.1469" height="21.7601">
   <capsule/>
  </object>
  <object id="49" x="69.5115" y="255.681" width="50.7736" height="24.7823">
   <capsule/>
  </object>
  <object id="50" x="38.0802" y="289.53" width="52.5869" height="22.3646">
   <capsule/>
  </object>
 </objectgroup>
 <layer id="12" name="Down_Switch" width="11" height="11">
  <data encoding="csv">
0,0,0,0,0,0,0,0,0,0,0,
0,0,0,0,0,0,0,0,0,0,0,
0,0,0,0,0,0,0,0,0,0,0,
0,0,0,0,0,0,0,0,0,0,0,
0,0,0,0,0,0,0,0,0,0,0,
0,0,0,0,0,0,0,0,0,0,0,
0,0,0,0,0,0,0,0,0,0,0,
0,0,0,0,0,0,0,0,0,0,0,
0,0,0,0,0,0,0,0,0,0,0,
0,0,0,0,0,0,0,0,0,29,0,
0,0,0,0,0,0,0,0,0,0,0
</data>
 </layer>
 <layer id="11" name="Up_Switch" width="11" height="11">
  <data encoding="csv">
0,0,0,0,0,0,0,0,0,0,0,
0,0,0,0,0,0,0,0,0,0,0,
0,0,0,0,0,0,0,0,0,0,0,
0,0,0,0,0,0,0,0,0,0,0,
0,0,0,0,0,0,0,0,0,0,0,
0,0,0,0,0,0,0,0,0,0,0,
0,0,0,0,0,0,0,0,0,0,0,
0,0,0,0,0,0,0,0,0,0,0,
0,0,0,0,0,0,0,0,0,0,0,
0,0,0,0,0,0,0,0,0,9,0,
0,0,0,0,0,0,0,0,0,0,0
</data>
 </layer>
 <objectgroup id="8" name="Wall_Collision">
  <object id="13" x="189" y="68.5209" width="145" height="25"/>
  <object id="14" x="20" y="69" width="143" height="25"/>
  <object id="15" x="322.349" y="64" width="23.6511" height="282"/>
  <object id="16" x="12.6953" y="51.4349" width="18" height="289"/>
  <object id="18" x="5" y="321.609" width="348" height="29"/>
 </objectgroup>
 <objectgroup id="10" name="Corridor_Chamber">
  <object id="30" name="corridor.tmx" x="162.596" y="68.3026" width="25.3868" height="26.5957"/>
 </objectgroup>
 <objectgroup id="9" name="SpawnPoints">
  <object id="29" name="corridor.tmx" x="171.5" y="100.5">
   <point/>
  </object>
 </objectgroup>
</map>
