<?xml version="1.0" encoding="UTF-8"?>
<map version="1.10" tiledversion="1.12.1" orientation="orthogonal" renderorder="right-down" width="16" height="10" tilewidth="32" tileheight="32" infinite="0" nextlayerid="26" nextobjectid="138">
 <tileset firstgid="1" source="wallfloor.tsx"/>
 <layer id="1" name="Wall" width="16" height="10" locked="1">
  <data encoding="csv">
44,44,44,28,23,23,23,23,23,23,23,23,23,27,44,44,
44,44,44,6,42,42,42,42,42,42,42,42,42,26,44,44,
44,44,44,6,43,43,43,43,43,43,43,43,43,26,44,44,
44,44,44,6,0,0,0,0,0,0,0,0,0,26,44,44,
44,44,44,6,0,0,0,0,0,0,0,0,0,26,44,44,
44,44,44,6,0,0,0,0,0,0,0,0,0,26,44,44,
44,44,44,6,0,0,0,0,0,0,0,0,0,26,44,44,
44,44,44,6,0,0,0,0,0,0,0,0,0,26,44,44,
44,44,44,6,0,0,0,0,0,0,0,0,0,26,44,44,
44,44,44,8,2,2,2,4,0,1,2,2,2,7,44,44
</data>
 </layer>
 <objectgroup id="25" name="ExaminePoints">
  <object id="136" name="holding_skull" x="192.453" y="100.734" width="34.1007" height="28.6132"/>
  <object id="137" name="holding_special" x="349.238" y="70.1611" width="39.1962" height="28.2212"/>
 </objectgroup>
 <layer id="24" name="Ventilation" width="16" height="10">
  <data encoding="csv">
0,0,0,0,0,0,0,0,0,0,0,0,0,0,0,0,
0,0,0,0,0,0,0,0,0,0,0,0,0,0,0,0,
0,0,0,0,0,170,0,0,0,0,0,170,0,0,0,0,
0,0,0,0,0,0,0,0,0,0,0,0,0,0,0,0,
0,0,0,0,0,0,0,0,0,0,0,0,0,0,0,0,
0,0,0,0,0,0,0,0,0,0,0,0,0,0,0,0,
0,0,0,0,0,0,0,0,0,0,0,0,0,0,0,0,
0,0,0,0,0,0,0,0,0,0,0,0,0,0,0,0,
0,0,0,0,0,0,0,0,0,0,0,0,0,0,0,0,
0,0,0,0,0,0,0,0,0,0,0,0,0,0,0,0
</data>
 </layer>
 <layer id="2" name="Ground" width="16" height="10" locked="1">
  <data encoding="csv">
0,0,0,0,0,0,0,0,0,0,0,0,0,0,0,0,
0,0,0,0,0,0,0,0,0,0,0,0,0,0,0,0,
0,0,0,0,0,0,0,0,0,0,0,0,0,0,0,0,
0,0,0,0,41,41,41,41,41,41,41,41,41,0,0,0,
0,0,0,0,41,41,41,41,41,41,41,41,41,0,0,0,
0,0,0,0,41,41,41,41,41,41,41,41,41,0,0,0,
0,0,0,0,41,41,41,41,41,41,41,41,41,0,0,0,
0,0,0,0,41,41,41,41,41,41,41,41,41,0,0,0,
0,0,0,0,41,41,41,41,41,41,41,41,41,0,0,0,
0,0,0,0,0,0,0,0,41,0,0,0,0,0,0,0
</data>
 </layer>
 <layer id="24" name="Block" width="16" height="10" locked="1">
  <data encoding="csv">
0,0,0,0,0,0,0,0,0,0,0,0,0,0,0,0,
0,0,0,0,0,0,0,0,0,0,0,0,0,0,0,0,
0,0,0,0,0,0,0,0,0,0,0,0,0,0,0,0,
0,0,0,0,0,0,172,0,0,0,0,0,0,0,0,0,
0,0,0,0,0,0,147,0,0,0,0,0,0,0,0,0,
0,0,0,0,0,0,0,0,0,0,0,0,0,0,0,0,
0,0,0,0,0,0,0,0,0,0,0,0,0,0,0,0,
0,0,0,0,0,0,0,0,0,0,0,0,0,0,0,0,
0,0,0,0,0,0,0,0,0,0,0,0,0,0,0,0,
0,0,0,0,0,0,0,0,0,0,0,0,0,0,0,0
</data>
 </layer>
 <layer id="23" name="Prisoner" width="16" height="10" locked="1">
  <data encoding="csv">
0,0,0,0,0,0,0,0,0,0,0,0,0,0,0,0,
0,0,0,0,0,0,0,0,0,0,0,0,0,0,0,0,
0,0,0,0,0,0,0,0,0,0,0,0,0,0,0,0,
0,0,0,0,0,0,0,0,0,0,18,0,0,0,0,0,
0,0,0,0,0,0,0,0,0,0,38,0,0,0,0,0,
0,0,0,0,0,0,0,0,0,0,0,0,0,0,0,0,
0,0,0,0,0,0,0,0,0,0,0,0,0,0,0,0,
0,0,0,0,0,0,0,0,0,0,0,0,0,0,0,0,
0,0,0,0,0,0,0,0,0,0,0,0,0,0,0,0,
0,0,0,0,0,0,0,0,0,0,0,0,0,0,0,0
</data>
 </layer>
 <layer id="3" name="Jail" width="16" height="10" locked="1">
  <data encoding="csv">
0,0,0,0,0,0,0,0,0,0,0,0,0,0,0,0,
0,0,0,0,0,0,0,0,0,0,0,0,0,0,0,0,
0,0,0,0,0,0,0,0,0,0,0,261,0,0,0,0,
0,0,0,0,0,0,0,0,0,0,0,0,0,0,0,0,
0,0,0,0,201,202,203,0,205,0,0,0,0,0,0,0,
0,0,0,0,0,0,0,0,0,0,0,0,0,0,0,0,
0,0,0,0,0,0,0,0,0,0,0,0,0,0,0,0,
0,0,0,0,0,0,0,0,0,0,0,0,0,0,0,0,
0,0,0,0,0,0,0,0,0,0,0,0,0,0,0,0,
0,0,0,0,0,0,0,0,0,0,0,0,0,0,0,0
</data>
 </layer>
 <objectgroup id="16" name="Door" locked="1">
  <object id="80" name="jail_door" gid="210" x="256" y="128" width="32" height="32">
   <properties>
    <property name="isOpen" type="bool" value="false"/>
   </properties>
  </object>
  <object id="81" name="jail_door" gid="190" x="256" y="96" width="32" height="32">
   <properties>
    <property name="isOpen" type="bool" value="false"/>
   </properties>
  </object>
 </objectgroup>
 <objectgroup id="15" name="Switch" locked="1">
  <object id="77" gid="126" x="128" y="256" width="32" height="32">
   <properties>
    <property name="color" value="blue"/>
    <property name="isPulled" type="bool" value="false"/>
    <property name="otherTileID" type="int" value="127"/>
    <property name="targetColor" value="blue"/>
    <property name="type" value="lever"/>
   </properties>
  </object>
  <object id="79" gid="128" x="320" y="160" width="32" height="32">
   <properties>
    <property name="isPulled" type="bool" value="false"/>
    <property name="otherTileID" type="int" value="129"/>
    <property name="targetName" value="jail_door"/>
    <property name="type" value="door_lever"/>
   </properties>
  </object>
  <object id="98" gid="148" x="160" y="256" width="32" height="32">
   <properties>
    <property name="color" value="white"/>
    <property name="isPulled" type="bool" value="false"/>
    <property name="otherTileID" type="int" value="149"/>
    <property name="targetColor" value="white"/>
    <property name="type" value="lever"/>
   </properties>
  </object>
 </objectgroup>
 <objectgroup id="14" name="Spikes" locked="1">
  <object id="34" gid="171" x="588.5" y="203.5" width="32" height="32"/>
  <object id="35" gid="171" x="583" y="246" width="32" height="32"/>
  <object id="64" gid="169" x="224" y="224" width="32" height="32">
   <properties>
    <property name="downTileID" type="int" value="168"/>
    <property name="isUp" type="bool" value="true"/>
    <property name="type" value="black"/>
    <property name="upTileID" type="int" value="169"/>
   </properties>
  </object>
  <object id="67" gid="145" x="224" y="160" width="32" height="32">
   <properties>
    <property name="downTileID" type="int" value="125"/>
    <property name="isUp" type="bool" value="true"/>
    <property name="type" value="blue"/>
    <property name="upTileID" type="int" value="145"/>
   </properties>
  </object>
  <object id="68" gid="167" x="192" y="160" width="32" height="32">
   <properties>
    <property name="downTileID" type="int" value="166"/>
    <property name="isUp" type="bool" value="true"/>
    <property name="type" value="white"/>
    <property name="upTileID" type="int" value="167"/>
   </properties>
  </object>
  <object id="74" gid="168" x="320" y="224" width="32" height="32">
   <properties>
    <property name="downTileID" type="int" value="168"/>
    <property name="isUp" type="bool" value="false"/>
    <property name="type" value="black"/>
    <property name="upTileID" type="int" value="169"/>
   </properties>
  </object>
  <object id="113" gid="169" x="192" y="192" width="32" height="32">
   <properties>
    <property name="downTileID" type="int" value="168"/>
    <property name="isUp" type="bool" value="true"/>
    <property name="type" value="black"/>
    <property name="upTileID" type="int" value="169"/>
   </properties>
  </object>
  <object id="114" gid="169" x="160" y="160" width="32" height="32">
   <properties>
    <property name="downTileID" type="int" value="168"/>
    <property name="isUp" type="bool" value="true"/>
    <property name="type" value="black"/>
    <property name="upTileID" type="int" value="169"/>
   </properties>
  </object>
  <object id="115" gid="169" x="256" y="160" width="32" height="32">
   <properties>
    <property name="downTileID" type="int" value="168"/>
    <property name="isUp" type="bool" value="true"/>
    <property name="type" value="black"/>
    <property name="upTileID" type="int" value="169"/>
   </properties>
  </object>
  <object id="116" gid="169" x="256" y="224" width="32" height="32">
   <properties>
    <property name="downTileID" type="int" value="168"/>
    <property name="isUp" type="bool" value="true"/>
    <property name="type" value="black"/>
    <property name="upTileID" type="int" value="169"/>
   </properties>
  </object>
  <object id="117" gid="169" x="288" y="224" width="32" height="32">
   <properties>
    <property name="downTileID" type="int" value="168"/>
    <property name="isUp" type="bool" value="true"/>
    <property name="type" value="black"/>
    <property name="upTileID" type="int" value="169"/>
   </properties>
  </object>
  <object id="118" gid="169" x="352" y="224" width="32" height="32">
   <properties>
    <property name="downTileID" type="int" value="168"/>
    <property name="isUp" type="bool" value="true"/>
    <property name="type" value="black"/>
    <property name="upTileID" type="int" value="169"/>
   </properties>
  </object>
  <object id="120" gid="169" x="384" y="192" width="32" height="32">
   <properties>
    <property name="downTileID" type="int" value="168"/>
    <property name="isUp" type="bool" value="true"/>
    <property name="type" value="black"/>
    <property name="upTileID" type="int" value="169"/>
   </properties>
  </object>
  <object id="121" gid="169" x="384" y="160" width="32" height="32">
   <properties>
    <property name="downTileID" type="int" value="168"/>
    <property name="isUp" type="bool" value="true"/>
    <property name="type" value="black"/>
    <property name="upTileID" type="int" value="169"/>
   </properties>
  </object>
  <object id="123" gid="167" x="224" y="192" width="32" height="32">
   <properties>
    <property name="downTileID" type="int" value="166"/>
    <property name="isUp" type="bool" value="true"/>
    <property name="type" value="white"/>
    <property name="upTileID" type="int" value="167"/>
   </properties>
  </object>
  <object id="124" gid="167" x="256" y="192" width="32" height="32">
   <properties>
    <property name="downTileID" type="int" value="166"/>
    <property name="isUp" type="bool" value="true"/>
    <property name="type" value="white"/>
    <property name="upTileID" type="int" value="167"/>
   </properties>
  </object>
  <object id="125" gid="167" x="288" y="192" width="32" height="32">
   <properties>
    <property name="downTileID" type="int" value="166"/>
    <property name="isUp" type="bool" value="true"/>
    <property name="type" value="white"/>
    <property name="upTileID" type="int" value="167"/>
   </properties>
  </object>
  <object id="126" gid="167" x="352" y="192" width="32" height="32">
   <properties>
    <property name="downTileID" type="int" value="166"/>
    <property name="isUp" type="bool" value="true"/>
    <property name="type" value="white"/>
    <property name="upTileID" type="int" value="167"/>
   </properties>
  </object>
  <object id="127" gid="145" x="288" y="160" width="32" height="32">
   <properties>
    <property name="downTileID" type="int" value="125"/>
    <property name="isUp" type="bool" value="true"/>
    <property name="type" value="blue"/>
    <property name="upTileID" type="int" value="145"/>
   </properties>
  </object>
  <object id="128" gid="145" x="320" y="192" width="32" height="32">
   <properties>
    <property name="downTileID" type="int" value="125"/>
    <property name="isUp" type="bool" value="true"/>
    <property name="type" value="blue"/>
    <property name="upTileID" type="int" value="145"/>
   </properties>
  </object>
  <object id="129" gid="145" x="352" y="160" width="32" height="32">
   <properties>
    <property name="downTileID" type="int" value="125"/>
    <property name="isUp" type="bool" value="true"/>
    <property name="type" value="blue"/>
    <property name="upTileID" type="int" value="145"/>
   </properties>
  </object>
  <object id="130" gid="168" x="320" y="256" width="32" height="32">
   <properties>
    <property name="downTileID" type="int" value="168"/>
    <property name="isUp" type="bool" value="false"/>
    <property name="type" value="black"/>
    <property name="upTileID" type="int" value="169"/>
   </properties>
  </object>
  <object id="131" gid="169" x="128" y="160" width="32" height="32">
   <properties>
    <property name="downTileID" type="int" value="168"/>
    <property name="isUp" type="bool" value="true"/>
    <property name="type" value="black"/>
    <property name="upTileID" type="int" value="169"/>
   </properties>
  </object>
 </objectgroup>
 <objectgroup id="5" name="Ritual_Chamber" locked="1">
  <object id="24" name="Ritual_Chamber.tmx" x="256" y="288" width="32" height="32"/>
 </objectgroup>
 <objectgroup id="18" name="Player_Spawn" locked="1">
  <object id="91" name="player_spawn" x="196.75" y="284.75">
   <point/>
  </object>
  <object id="93" name="player_spawn" x="196.75" y="284.75">
   <point/>
  </object>
 </objectgroup>
 <objectgroup id="25" name="Prisoner_Interact" locked="1">
  <object id="134" name="prisoner" x="320" y="128" width="32" height="32"/>
 </objectgroup>
 <objectgroup id="6" name="Jail_Collision" locked="1">
  <object id="9" x="128" y="152" width="128" height="8"/>
  <object id="90" x="288" y="152" width="128" height="8"/>
  <object id="112" x="193.25" y="93.5" width="29" height="60"/>
  <object id="135" x="324.375" y="115.42" width="14.875" height="38.0985"/>
 </objectgroup>
 <objectgroup id="8" name="Wall_Collision" locked="1">
  <object id="12" x="117" y="96" width="11" height="202"/>
  <object id="13" x="128" y="288" width="128" height="32"/>
  <object id="18" x="117" y="80" width="310" height="14.5"/>
  <object id="84" x="256" y="318" width="32" height="2"/>
  <object id="85" x="288" y="288" width="128" height="32"/>
  <object id="89" x="416" y="96" width="11" height="202"/>
  <object id="99" x="128" y="266" width="28" height="22"/>
  <object id="100" x="160" y="266" width="28" height="22"/>
  <object id="101" x="320" y="169" width="28" height="22"/>
 </objectgroup>
 <objectgroup id="7" name="Jail_Door_Collision" locked="1">
  <object id="11" name="jail_door_hitbox" x="256" y="140" width="32" height="20">
   <properties>
    <property name="Name" value="jail_door_hitbox"/>
   </properties>
  </object>
 </objectgroup>
 <objectgroup id="9" name="SpawnPoints" locked="1">
  <object id="25" name="Ritual_Chamber.tmx" x="259.096" y="304.126">
   <point/>
  </object>
 </objectgroup>
 <layer id="20" name="Overhead" width="16" height="10" locked="1">
  <data encoding="csv">
0,0,0,0,0,0,0,0,0,0,0,0,0,0,0,0,
0,0,0,0,0,0,0,0,0,0,0,0,0,0,0,0,
0,0,0,0,0,0,0,0,0,0,0,0,0,0,0,0,
0,0,0,0,181,182,183,184,185,186,187,188,189,0,0,0,
0,0,0,0,0,0,0,204,0,206,207,208,209,0,0,0,
0,0,0,0,0,0,0,0,0,0,0,0,0,0,0,0,
0,0,0,0,0,0,0,0,0,0,0,0,0,0,0,0,
0,0,0,0,0,0,0,0,0,0,0,0,0,0,0,0,
0,0,0,0,0,0,0,0,0,0,0,0,0,0,0,0,
0,0,0,0,0,0,0,0,0,0,0,0,0,0,0,0
</data>
 </layer>
</map>
