<?xml version="1.0" encoding="UTF-8"?>
<map version="1.10" tiledversion="1.12.1" orientation="orthogonal" renderorder="right-down" width="16" height="14" tilewidth="32" tileheight="32" infinite="0" nextlayerid="58" nextobjectid="152">
 <tileset firstgid="1" source="bookself.tsx"/>
 <tileset firstgid="211" source="wall_paid.tsx"/>
 <tileset firstgid="407" source="floor_paid.tsx"/>
 <tileset firstgid="505" source="wallfloor.tsx"/>
 <tileset firstgid="805" source="candle.tsx"/>
 <layer id="1" name="Wall" width="16" height="14">
  <data encoding="csv">
226,226,226,215,216,216,216,216,216,216,216,216,216,217,226,226,
226,226,226,229,251,220,220,220,220,220,220,220,260,231,226,226,
226,226,226,229,265,220,220,220,220,220,220,220,260,231,226,226,
226,226,226,298,0,0,0,0,0,0,0,0,0,231,226,226,
226,226,226,0,0,0,0,0,0,0,0,0,0,231,226,226,
226,226,226,256,0,0,0,0,0,0,0,0,0,231,226,226,
226,226,226,229,0,0,0,0,0,0,0,0,0,231,226,226,
226,226,226,229,0,0,0,0,0,0,0,0,0,231,226,226,
226,226,226,229,0,0,0,0,0,0,0,0,0,231,226,226,
226,226,226,229,0,0,0,0,0,0,0,15,0,295,226,226,
226,226,226,229,0,0,0,0,0,0,0,0,0,0,226,226,
226,226,226,229,0,0,0,0,0,0,0,0,0,253,226,226,
226,226,226,229,0,0,0,0,0,0,0,0,0,231,226,226,
226,226,226,243,244,244,244,244,244,244,244,244,244,245,226,226
</data>
 </layer>
 <layer id="3" name="Floor" width="16" height="14">
  <data encoding="csv">
0,0,0,0,0,0,0,0,0,0,0,0,0,0,0,0,
0,0,0,0,0,0,0,0,0,0,0,0,0,0,0,0,
0,0,0,0,0,0,0,0,0,0,0,0,0,0,0,0,
0,0,0,0,415,415,415,415,415,415,415,415,415,0,0,0,
0,0,0,614,415,415,415,415,415,415,415,415,415,0,0,0,
0,0,0,0,415,415,415,415,415,415,415,415,415,0,0,0,
0,0,0,0,415,415,415,415,415,415,415,415,415,0,0,0,
0,0,0,0,415,415,415,415,415,415,415,415,415,0,0,0,
0,0,0,0,415,415,415,415,415,415,415,415,415,0,0,0,
0,0,0,0,415,415,415,415,415,415,415,415,415,0,0,0,
0,0,0,0,415,415,415,415,415,415,415,415,415,415,0,0,
0,0,0,0,415,415,415,415,415,415,415,415,415,0,0,0,
0,0,0,0,415,415,415,415,415,415,415,415,415,0,0,0,
0,0,0,0,0,0,0,0,0,0,0,0,0,0,0,0
</data>
 </layer>
 <layer id="15" name="Hide_Floor" width="16" height="14">
  <data encoding="csv">
0,0,0,0,0,0,0,0,0,0,0,0,0,0,0,0,
0,0,0,0,0,0,0,0,0,0,0,0,0,0,0,0,
0,0,0,0,0,0,0,0,0,0,0,0,0,0,0,0,
0,0,0,0,0,0,0,0,0,0,0,0,0,0,0,0,
0,0,0,229,0,0,0,0,0,0,0,0,0,0,0,0,
0,0,0,0,0,0,0,0,0,0,0,0,0,0,0,0,
0,0,0,0,0,0,0,0,0,0,0,0,0,0,0,0,
0,0,0,0,0,0,0,0,0,0,0,0,0,0,0,0,
0,0,0,0,0,0,0,0,0,0,0,0,0,0,0,0,
0,0,0,0,0,0,0,0,0,0,0,0,0,0,0,0,
0,0,0,0,0,0,0,0,0,0,0,0,0,0,0,0,
0,0,0,0,0,0,0,0,0,0,0,0,0,0,0,0,
0,0,0,0,0,0,0,0,0,0,0,0,0,0,0,0,
0,0,0,0,0,0,0,0,0,0,0,0,0,0,0,0
</data>
 </layer>
 <layer id="2" name="Bookself" width="16" height="14">
  <data encoding="csv">
0,0,0,0,0,0,0,0,0,0,0,0,0,0,0,0,
0,0,0,0,0,0,0,0,0,0,0,0,0,0,0,0,
0,0,0,0,45,46,47,48,0,45,46,49,50,0,0,0,
0,0,0,0,59,60,61,62,0,59,60,63,64,0,0,0,
0,0,0,0,0,0,0,0,0,0,0,0,0,0,0,0,
0,0,0,0,47,48,49,50,51,52,0,51,52,0,0,0,
0,0,0,0,61,62,63,64,65,66,0,65,66,0,0,0,
0,0,0,0,0,0,0,0,0,0,0,0,0,0,0,0,
0,0,0,0,49,50,0,47,48,49,50,45,46,0,0,0,
0,0,0,0,63,64,0,61,62,63,64,59,60,0,0,0,
0,0,0,0,0,0,0,0,0,0,0,0,0,0,0,0,
0,0,0,0,0,0,0,0,0,0,0,0,0,0,0,0,
0,0,0,0,0,0,0,0,0,0,0,0,0,0,0,0,
0,0,0,0,0,0,0,0,0,0,0,0,0,0,0,0
</data>
 </layer>
 <layer id="25" name="Table" width="16" height="14">
  <data encoding="csv">
0,0,0,0,0,0,0,0,0,0,0,0,0,0,0,0,
0,0,0,0,0,0,0,0,0,0,0,0,0,0,0,0,
0,0,0,0,0,0,0,0,0,0,0,0,0,0,0,0,
0,0,0,0,0,0,0,0,0,0,0,0,0,0,0,0,
0,0,0,0,0,0,0,0,0,0,0,0,0,0,0,0,
0,0,0,0,0,0,0,0,0,0,0,0,0,0,0,0,
0,0,0,0,0,0,0,0,0,0,0,0,0,0,0,0,
0,0,0,0,0,0,0,0,0,0,0,0,0,0,0,0,
0,0,0,0,0,0,0,0,0,0,0,0,0,0,0,0,
0,0,0,0,0,0,0,0,0,0,0,0,0,0,0,0,
0,0,0,0,0,0,0,0,0,0,0,0,0,0,0,0,
0,0,0,0,0,0,0,0,0,0,15,16,0,0,0,0,
0,0,0,0,0,0,0,0,0,0,29,30,0,0,0,0,
0,0,0,0,0,0,0,0,0,0,0,0,0,0,0,0
</data>
 </layer>
 <objectgroup id="11" name="Corridor_Chamber">
  <object id="75" name="corridor.tmx" x="415.258" y="321.566" width="32.3105" height="31.5412"/>
 </objectgroup>
 <objectgroup id="12" name="Wall_Collision">
  <object id="45" x="116.667" y="163.946" width="9.33333" height="258.721"/>
  <object id="46" x="116" y="417.333" width="310.667" height="16"/>
  <object id="48" x="416.667" y="23.3333" width="30.6667" height="297.333"/>
  <object id="50" x="416" y="353.5" width="32.125" height="71.625"/>
  <object id="80" x="118.213" y="22.8798" width="7.62661" height="104.23"/>
  <object id="149" x="87.3333" y="162" width="35.3333" height="10.6667"/>
  <object id="150" x="82.6667" y="118" width="38" height="8.66667"/>
  <object id="151" x="82" y="120" width="13.3333" height="52.6667"/>
 </objectgroup>
 <objectgroup id="13" name="Self_Collision">
  <object id="57" x="121.5" y="205" width="196.5" height="19"/>
  <object id="60" x="355" y="209" width="65" height="14.5"/>
  <object id="62" x="116.5" y="301.5" width="75" height="19"/>
  <object id="63" x="226" y="304" width="195.5" height="15.5"/>
  <object id="67" x="319.333" y="393" width="64" height="27"/>
  <object id="120" x="125.839" y="109.315" width="297.438" height="19.0665"/>
 </objectgroup>
 <objectgroup id="38" name="hidden_room_Collision">
  <object id="84" x="115.67" y="124.568" width="11.4399" height="40.6753"/>
 </objectgroup>
 <objectgroup id="26" name="Hidden_room_Chamber">
  <object id="118" name="hidden_room.tmx" x="94.0616" y="124.568" width="27.9643" height="39.4042"/>
 </objectgroup>
 <objectgroup id="14" name="SpawnPoints">
  <object id="76" name="corridor.tmx" x="394.374" y="347.028">
   <point/>
  </object>
  <object id="78" name="hidden_room.tmx" x="150.765" y="152.384">
   <point/>
  </object>
 </objectgroup>
 <layer id="31" name="Chest_Open" width="16" height="14">
  <data encoding="csv">
0,0,0,0,0,0,0,0,0,0,0,0,0,0,0,0,
0,0,0,0,0,0,0,0,0,0,0,0,0,0,0,0,
0,0,0,0,0,0,0,0,115,0,0,0,0,0,0,0,
0,0,0,0,0,0,0,0,129,0,0,0,0,0,0,0,
0,0,0,0,0,0,0,0,0,0,0,0,0,0,0,0,
0,0,0,0,0,0,0,0,0,0,0,0,0,0,0,0,
0,0,0,0,0,0,0,0,0,0,0,0,0,0,0,0,
0,0,0,0,0,0,0,0,0,0,0,0,0,0,0,0,
0,0,0,0,0,0,0,0,0,0,0,0,0,0,0,0,
0,0,0,0,0,0,0,0,0,0,0,0,0,0,0,0,
0,0,0,0,0,0,0,0,0,0,0,0,0,0,0,0,
0,0,0,0,0,0,0,0,0,0,0,0,0,0,0,0,
0,0,0,0,0,0,0,0,0,0,0,0,0,0,0,0,
0,0,0,0,0,0,0,0,0,0,0,0,0,0,0,0
</data>
 </layer>
 <layer id="24" name="Chest_Close" width="16" height="14">
  <data encoding="csv">
0,0,0,0,0,0,0,0,0,0,0,0,0,0,0,0,
0,0,0,0,0,0,0,0,0,0,0,0,0,0,0,0,
0,0,0,0,0,0,0,0,113,0,0,0,0,0,0,0,
0,0,0,0,0,0,0,0,127,0,0,0,0,0,0,0,
0,0,0,0,0,0,0,0,0,0,0,0,0,0,0,0,
0,0,0,0,0,0,0,0,0,0,0,0,0,0,0,0,
0,0,0,0,0,0,0,0,0,0,0,0,0,0,0,0,
0,0,0,0,0,0,0,0,0,0,0,0,0,0,0,0,
0,0,0,0,0,0,0,0,0,0,0,0,0,0,0,0,
0,0,0,0,0,0,0,0,0,0,0,0,0,0,0,0,
0,0,0,0,0,0,0,0,0,0,0,0,0,0,0,0,
0,0,0,0,0,0,0,0,0,0,0,0,0,0,0,0,
0,0,0,0,0,0,0,0,0,0,0,0,0,0,0,0,
0,0,0,0,0,0,0,0,0,0,0,0,0,0,0,0
</data>
 </layer>
 <objectgroup id="52" name="Interact_Point_0">
  <object id="108" gid="536" x="319.571" y="352.62" width="32" height="32"/>
  <object id="109" x="319.047" y="358.451" width="64.8262" height="33.0487"/>
 </objectgroup>
 <objectgroup id="53" name="Interact_Point_1">
  <object id="110" x="136.008" y="311.42" width="54.6574" height="22.8798"/>
  <object id="111" gid="556" x="159.412" y="287.793" width="32" height="32"/>
 </objectgroup>
 <objectgroup id="54" name="Interact_Point_2">
  <object id="112" gid="556" x="224.238" y="191.19" width="32" height="32"/>
  <object id="113" x="195.75" y="214.816" width="59.7418" height="21.6087"/>
 </objectgroup>
 <objectgroup id="55" name="Interact_Point_3">
  <object id="114" x="291.082" y="310.149" width="61.0129" height="22.8798"/>
  <object id="115" gid="556" x="319.571" y="287.793" width="32" height="32"/>
 </objectgroup>
 <objectgroup id="56" name="Interact_Point_4">
  <object id="116" gid="556" x="384.397" y="95.857" width="32" height="32"/>
  <object id="117" x="354.638" y="116.941" width="61.0129" height="26.6931"/>
 </objectgroup>
 <objectgroup id="57" name="Candle_Off">
  <object id="130" gid="6" x="160.667" y="32.6667" width="32" height="32"/>
  <object id="132" gid="6" x="288" y="33.3333" width="32" height="32"/>
  <object id="133" gid="6" x="352.667" y="32.6667" width="32" height="32"/>
  <object id="135" gid="6" x="224.667" y="33.3333" width="32" height="32"/>
 </objectgroup>
 <objectgroup id="50" name="Candle_On_2">
  <object id="144" name="candle_2" gid="2" x="224.667" y="34" width="32" height="32"/>
  <object id="145" name="candle_3" gid="2" x="288" y="33.3333" width="32" height="32"/>
  <object id="146" name="candle_4" gid="2" x="354" y="32.6667" width="32" height="32"/>
  <object id="147" name="candle_1" gid="2" x="161.333" y="32.6667" width="32" height="32"/>
 </objectgroup>
 <objectgroup id="51" name="Candle_On_1">
  <object id="136" name="candle_1" gid="2" x="160.667" y="32.6667" width="32" height="32"/>
  <object id="137" name="candle_2" gid="2" x="224.667" y="33.3333" width="32" height="32"/>
  <object id="140" name="candle_3" gid="2" x="288" y="33.3333" width="32" height="32"/>
  <object id="142" name="candle_4" gid="2" x="354" y="32.6667" width="32" height="32"/>
 </objectgroup>
</map>
