<?xml version="1.0" encoding="UTF-8"?>
<map version="1.10" tiledversion="1.12.0" orientation="orthogonal" renderorder="right-down" width="16" height="9" tilewidth="32" tileheight="32" infinite="0" nextlayerid="14" nextobjectid="30">
 <tileset firstgid="1" source="wall_paid.tsx"/>
 <tileset firstgid="197" source="floor_paid.tsx"/>
 <tileset firstgid="295" source="bookself.tsx"/>
 <layer id="2" name="Floor" width="16" height="9" locked="1">
  <data encoding="csv">
0,0,0,0,0,0,0,0,0,0,0,0,0,0,0,0,
0,0,0,0,0,0,0,0,0,0,0,0,0,0,0,0,
0,0,0,0,0,0,0,0,0,0,0,0,0,0,0,0,
0,0,0,0,283,278,278,278,278,278,278,280,0,0,0,0,
0,0,0,283,268,268,268,268,268,268,268,268,282,0,0,0,
0,0,0,0,281,268,268,268,268,268,268,282,0,0,0,0,
0,0,0,0,285,287,287,287,287,287,287,287,0,0,0,0,
0,0,0,0,0,0,0,0,0,0,0,0,0,0,0,0,
0,0,0,0,0,0,0,0,0,0,0,0,0,0,0,0
</data>
 </layer>
 <layer id="1" name="Wall" width="16" height="9" locked="1">
  <data encoding="csv">
16,16,16,5,140,6,6,6,6,6,6,6,7,16,16,16,
16,16,16,19,154,52,10,109,110,120,121,10,21,16,16,16,
16,16,16,19,154,66,95,96,120,121,95,96,21,16,16,16,
16,16,16,88,154,0,0,0,0,0,0,0,85,16,16,16,
16,16,16,0,0,0,0,0,0,0,0,0,0,16,16,16,
16,16,16,46,0,0,0,0,0,0,0,0,43,16,16,16,
16,16,16,19,0,0,0,0,0,0,0,0,21,16,16,16,
16,16,16,33,34,34,34,34,34,34,34,34,35,16,16,16,
16,16,16,16,16,16,16,16,16,16,16,16,16,16,16,16
</data>
 </layer>
 <layer id="12" name="Blood" width="16" height="9" locked="1">
  <data encoding="csv">
0,0,0,0,0,0,0,0,0,0,0,0,0,0,0,0,
0,0,0,0,0,0,0,0,0,0,0,0,0,0,0,0,
0,0,0,0,0,0,0,0,0,0,0,0,0,0,0,0,
0,0,0,0,0,0,0,0,0,0,0,0,0,0,0,0,
0,0,0,0,0,0,0,0,0,0,0,372,384,0,0,0,
0,0,0,0,0,0,0,0,0,0,0,0,0,0,0,0,
0,0,0,0,0,0,0,0,0,0,0,0,0,0,0,0,
0,0,0,0,0,0,0,0,0,0,0,0,0,0,0,0,
0,0,0,0,0,0,0,0,0,0,0,0,0,0,0,0
</data>
 </layer>
 <layer id="13" name="Queen_Blood" width="16" height="9" locked="1">
  <data encoding="csv">
0,0,0,0,0,0,0,0,0,0,0,0,0,0,0,0,
0,0,0,0,0,0,0,0,0,0,0,0,0,0,0,0,
0,0,0,0,0,0,0,0,0,0,0,0,0,0,0,0,
0,0,0,0,0,0,0,0,0,0,0,0,0,0,0,0,
0,0,0,437,0,0,0,0,0,0,0,0,0,0,0,0,
0,0,0,0,0,0,0,0,0,0,0,0,0,0,0,0,
0,0,0,0,0,0,0,0,0,0,0,0,0,0,0,0,
0,0,0,0,0,0,0,0,0,0,0,0,0,0,0,0,
0,0,0,0,0,0,0,0,0,0,0,0,0,0,0,0
</data>
 </layer>
 <objectgroup id="6" name="Wall_Collision" locked="1">
  <object id="1" x="96.5" y="8.25" width="29.3333" height="120.583"/>
  <object id="2" x="94.25" y="162" width="31.75" height="76.5"/>
  <object id="3" x="100.667" y="226" width="304" height="21.3333"/>
  <object id="4" x="385.75" y="161.75" width="33.7045" height="79.5"/>
  <object id="5" x="384.667" y="75.1667" width="35.3333" height="52.8333"/>
  <object id="6" x="416.667" y="103" width="12.5" height="77.8333"/>
  <object id="7" x="164.25" y="75.5" width="234.75" height="18"/>
  <object id="9" x="75.3333" y="100" width="20.6667" height="88"/>
  <object id="13" x="163.045" y="7.59089" width="2" height="119.841"/>
  <object id="29" x="123.75" y="7.79545" width="40" height="9.20455"/>
 </objectgroup>
 <objectgroup id="10" name="Disposal_Chamber" locked="1">
  <object id="18" name="Disposal.tmx" x="126.182" y="17.6364" width="32.5455" height="30.3031"/>
 </objectgroup>
 <objectgroup id="7" name="SpawnPoints" locked="1">
  <object id="15" name="Old_Chapel.tmx" x="104.083" y="159.19">
   <point/>
  </object>
  <object id="17" name="Exit_Chamber.tmx" x="387.061" y="158.424">
   <point/>
  </object>
  <object id="20" name="Disposal.tmx" x="133" y="37.125">
   <point/>
  </object>
 </objectgroup>
 <objectgroup id="11" name="ExaminePoints" locked="1">
  <object id="26" name="corridor_niche" x="197.333" y="69.6667" width="56.6667" height="20.6667"/>
  <object id="27" name="corridor_niche" x="260" y="70" width="56.6667" height="20.6667"/>
  <object id="28" name="corridor_niche" x="325" y="69.6667" width="56.6667" height="20.6667"/>
 </objectgroup>
 <objectgroup id="8" name="Old_Chapel_Chamber" locked="1">
  <object id="14" name="Old_Chapel.tmx" x="95.75" y="128.5" width="30" height="33.5"/>
 </objectgroup>
 <objectgroup id="9" name="Exit_Chamber" locked="1">
  <object id="16" name="Exit_Chamber.tmx" x="384.182" y="128.182" width="32.3636" height="33.6364"/>
 </objectgroup>
</map>
