<?xml version="1.0" encoding="UTF-8"?>
<map version="1.10" tiledversion="1.12.0" orientation="orthogonal" renderorder="right-down" width="24" height="9" tilewidth="32" tileheight="32" infinite="0" nextlayerid="22" nextobjectid="101">
 <tileset firstgid="1" source="wallfloor.tsx"/>
 <tileset firstgid="301" source="bookself.tsx"/>
 <layer id="1" name="Wall" width="24" height="9" locked="1">
  <data encoding="csv">
66,102,102,102,102,102,102,102,102,102,102,102,102,102,102,102,102,102,102,102,102,102,102,86,
103,63,63,63,63,63,63,63,63,63,63,65,63,63,63,63,63,63,63,63,63,63,63,83,
103,64,64,64,64,64,64,64,64,64,64,85,64,64,64,64,64,64,64,64,64,64,64,83,
103,0,0,0,0,0,0,0,0,0,0,0,0,0,0,0,0,234,233,234,240,240,240,83,
103,0,0,0,0,0,0,0,0,0,0,0,0,0,0,0,0,254,253,254,194,240,240,83,
104,0,0,0,0,0,0,0,0,0,0,0,0,0,0,0,273,0,273,0,240,240,240,83,
0,0,0,0,0,0,0,0,0,0,0,0,0,0,0,0,0,0,0,0,0,0,0,83,
84,0,0,0,0,0,0,0,0,0,0,0,0,0,0,0,0,0,0,0,0,0,0,83,
105,82,82,82,82,82,82,82,82,82,82,82,82,82,82,82,82,82,82,82,82,82,82,106
</data>
 </layer>
 <objectgroup id="19" name="Guards" locked="1">
  <object id="83" name="guard_2" x="429.198" y="226.358">
   <polyline points="0,0 -62.3219,-81.724 -149.925,1.17589 -224.006,-71.729 -329.836,-3.52766"/>
  </object>
  <object id="100" name="guard_1" x="447.333" y="234">
   <polygon points="0,0 -382.667,2 -245.333,-74"/>
  </object>
 </objectgroup>
 <objectgroup id="20" name="ExaminePoints" locked="1">
  <object id="83" name="queen_nest" x="541.495" y="93.4829" width="105.83" height="101.126" visible="0"/>
  <object id="91" name="queen_shoot" x="420.379" y="111.636" width="51.151" height="41.229"/>
  <object id="92" name="queen_flower" x="495.636" y="128.171" width="29.3971" height="21.7539"/>
  <object id="93" name="queen_shoot" x="260.753" y="110.724" width="51.151" height="42.729"/>
  <object id="94" name="queen_shoot" x="101.42" y="109.724" width="51.151" height="43.729"/>
  <object id="96" name="queen_flower" x="478.585" y="144.928" width="29.3971" height="21.7539"/>
  <object id="97" name="queen_flower" x="499.751" y="163.742" width="29.3971" height="21.7539"/>
  <object id="98" name="queen_flower" x="659.672" y="167.858" width="29.3971" height="21.7539"/>
 </objectgroup>
 <layer id="2" name="Floor" width="24" height="9" locked="1">
  <data encoding="csv">
0,0,0,0,0,0,0,0,0,0,0,0,0,0,0,0,0,0,0,0,0,0,0,0,
0,0,0,0,0,0,0,0,0,0,0,0,0,0,0,0,0,0,0,0,0,0,0,0,
0,0,0,0,0,0,0,0,0,0,0,0,0,0,0,0,0,0,0,0,0,0,0,0,
0,41,41,41,41,41,41,41,41,41,41,41,41,41,41,41,41,41,41,41,41,41,41,0,
0,41,41,41,41,41,41,41,41,41,41,41,41,41,41,41,41,41,41,41,41,41,41,0,
0,41,41,41,41,41,41,41,41,41,41,41,41,41,41,41,41,41,41,41,41,41,41,0,
41,41,41,41,41,41,41,41,41,41,41,41,41,41,41,41,41,41,41,41,41,41,41,0,
0,41,41,41,41,41,41,41,41,41,41,41,41,41,41,41,41,41,41,41,41,41,41,0,
0,0,0,0,0,0,0,0,0,0,0,0,0,0,0,0,0,0,0,0,0,0,0,0
</data>
 </layer>
 <layer id="21" name="Queen_Blood" width="24" height="9" locked="1">
  <data encoding="csv">
0,0,0,0,0,0,0,0,0,0,0,0,0,0,0,0,0,0,0,0,0,0,0,0,
0,0,0,0,0,0,0,0,0,0,0,0,0,0,0,0,0,0,0,0,0,0,0,0,
0,0,0,0,0,0,0,0,0,0,0,0,0,0,0,0,0,0,0,0,0,0,0,0,
0,0,0,0,0,0,0,0,0,0,0,0,0,0,0,0,0,0,0,0,0,0,0,0,
0,0,0,0,0,0,0,0,0,0,0,0,0,0,0,0,0,0,0,0,0,0,0,0,
0,0,0,0,0,0,0,0,0,0,0,0,0,0,479,480,481,482,0,0,0,0,0,0,
0,0,0,0,0,0,0,0,0,0,0,0,0,0,493,494,495,496,0,0,0,0,0,0,
0,0,0,0,0,0,0,0,0,0,0,0,0,0,507,508,509,510,0,0,0,0,0,0,
0,0,0,0,0,0,0,0,0,0,0,0,0,0,0,0,0,0,0,0,0,0,0,0
</data>
 </layer>
 <objectgroup id="8" name="Corridor_Chamber" locked="1">
  <object id="27" name="Corridor.tmx" x="0" y="192" width="32" height="32"/>
 </objectgroup>
 <objectgroup id="10" name="Wax_Chamber" locked="1">
  <object id="31" name="Wax_Pumb.tmx" x="352" y="64" width="32" height="32"/>
 </objectgroup>
 <objectgroup id="9" name="SpawnPoints" locked="1">
  <object id="29" name="Corridor.tmx" x="14" y="213">
   <point/>
  </object>
  <object id="30" name="Wax_Pumb.tmx" x="356.727" y="105.818">
   <point/>
  </object>
 </objectgroup>
 <layer id="13" name="Cocoon2" width="24" height="9" locked="1">
  <data encoding="csv">
0,0,0,0,0,0,0,0,0,0,0,0,0,0,0,0,0,0,0,0,0,0,0,0,
0,0,0,0,0,0,0,0,0,0,0,0,0,0,0,0,0,117,118,0,0,0,0,0,
0,0,198,0,0,198,0,0,0,0,0,0,0,0,0,0,0,137,138,0,0,0,0,0,
0,0,198,0,0,198,198,0,0,0,0,0,0,0,0,0,0,157,158,0,0,0,0,0,
0,0,198,157,158,198,198,0,157,158,0,0,0,157,158,246,0,0,0,0,0,157,158,0,
0,0,0,198,198,0,198,0,0,0,0,0,246,0,0,0,0,0,0,0,0,0,0,0,
0,0,0,0,0,0,0,0,0,0,0,0,0,0,0,0,0,0,0,0,0,0,0,0,
0,0,0,0,0,0,0,0,0,0,0,0,0,0,0,0,0,0,0,0,0,0,0,0,
0,0,0,0,0,0,0,0,0,0,0,0,0,0,0,0,0,0,0,0,0,0,0,0
</data>
 </layer>
 <layer id="11" name="Decorate2" width="24" height="9" locked="1">
  <data encoding="csv">
0,0,0,0,0,0,0,0,0,0,0,0,0,0,0,0,0,0,0,0,0,0,0,0,
0,0,0,0,0,0,0,0,0,0,0,0,0,0,0,0,0,0,0,0,0,0,0,0,
0,0,0,0,0,0,0,0,0,0,0,0,0,0,0,0,0,176,176,176,176,176,0,0,
0,0,0,0,0,0,0,0,0,0,0,0,0,0,0,0,176,176,176,194,195,176,176,0,
0,0,0,0,0,0,0,0,0,0,0,0,0,0,0,0,0,0,0,214,215,195,176,0,
0,0,0,0,0,0,0,0,0,0,0,0,0,0,0,214,215,211,211,211,214,215,211,0,
0,0,0,0,0,0,0,0,0,0,0,0,0,0,0,0,0,211,211,211,211,211,211,0,
0,0,0,0,0,0,0,0,0,0,0,0,0,0,0,0,0,0,0,0,0,0,0,0,
0,0,0,0,0,0,0,0,0,0,0,0,0,0,0,0,0,0,0,0,0,0,0,0
</data>
 </layer>
 <layer id="3" name="Cocoon_Throne" width="24" height="9" locked="1">
  <data encoding="csv">
0,0,0,0,0,0,0,0,0,0,0,0,0,0,0,0,0,0,0,0,0,0,0,0,
0,0,0,0,0,0,0,0,0,0,0,0,0,0,0,0,0,0,0,0,0,0,0,0,
0,0,0,0,0,0,0,0,0,0,0,0,0,0,0,0,0,0,217,218,0,0,0,0,
0,0,0,0,0,0,0,0,0,0,0,0,0,0,0,0,0,236,237,238,239,0,0,0,
0,0,0,0,0,0,0,0,0,0,0,0,0,0,0,0,255,256,257,258,259,0,0,0,
0,0,0,0,0,0,0,0,0,0,0,0,0,0,0,274,275,276,277,278,279,280,176,0,
0,0,0,0,0,0,0,0,0,0,0,0,0,0,292,294,295,296,297,298,299,300,0,0,
0,0,0,0,0,0,0,0,0,0,0,0,0,0,0,0,0,0,0,0,0,0,0,0,
0,0,0,0,0,0,0,0,0,0,0,0,0,0,0,0,0,0,0,0,0,0,0,0
</data>
 </layer>
 <layer id="12" name="Decorate1" width="24" height="9" locked="1">
  <data encoding="csv">
0,0,0,0,0,0,0,0,0,0,0,0,0,0,0,0,0,0,0,0,0,0,0,0,
0,0,0,0,0,0,0,0,0,0,0,0,0,0,0,0,0,0,0,0,0,0,0,0,
0,0,0,0,0,0,0,0,0,0,0,0,0,0,0,0,0,0,0,0,0,0,0,0,
0,0,0,0,0,0,0,0,0,0,0,0,0,0,0,0,0,0,0,0,0,0,0,0,
0,0,0,0,0,0,0,0,0,0,0,0,0,0,0,0,0,0,0,0,0,0,0,0,
0,0,0,0,0,0,0,0,0,0,0,0,0,0,192,193,0,0,0,0,0,0,0,0,
0,0,0,0,0,0,0,0,0,0,0,0,0,0,212,213,0,232,233,0,0,0,0,0,
0,0,0,0,0,0,0,0,0,0,0,0,0,0,0,0,0,252,253,0,0,0,0,0,
0,0,0,0,0,0,0,0,0,0,0,0,0,0,0,0,0,0,0,0,0,0,0,0
</data>
 </layer>
 <objectgroup id="18" name="Cocoon_Throne_Collision" locked="1">
  <object id="77" x="577" y="166" width="116" height="48">
   <capsule/>
  </object>
  <object id="96" x="465.5" y="179.292" width="33.3333" height="24.75">
   <capsule/>
  </object>
  <object id="67" x="107" y="127" width="41" height="22">
   <capsule/>
  </object>
  <object id="68" x="268" y="128" width="42" height="22">
   <capsule/>
  </object>
  <object id="69" x="427" y="130" width="41" height="23">
   <capsule/>
  </object>
  <object id="71" x="668.333" y="80.3333" width="74" height="70.6667">
   <capsule/>
  </object>
  <object id="84" x="548" y="94" width="152.333" height="79.1667">
   <capsule/>
  </object>
  <object id="87" x="529.5" y="144" width="111" height="29.1667">
   <capsule/>
  </object>
  <object id="102" x="491.833" y="161.125" width="44.8333" height="26.75">
   <capsule/>
  </object>
  <object id="86" x="560.333" y="203.125" width="32.3333" height="19.25">
   <capsule/>
  </object>
 </objectgroup>
 <objectgroup id="20" name="Queen_Interact" locked="1">
  <object id="83" name="queen_flower" x="544" y="161" width="64" height="31"/>
 </objectgroup>
 <objectgroup id="4" name="Wall_Collision" locked="1">
  <object id="1" x="384" y="64" width="352" height="32"/>
  <object id="2" x="32" y="64" width="320.756" height="31.5406"/>
  <object id="5" x="736" y="64" width="12" height="204"/>
  <object id="6" x="32" y="256" width="704" height="12"/>
  <object id="14" x="0" y="224" width="32" height="44"/>
  <object id="80" x="0" y="64" width="32" height="128"/>
  <object id="81" x="0" y="192" width="3" height="32"/>
  <object id="82" x="352" y="77" width="32" height="3"/>
 </objectgroup>
 <layer id="19" name="Overhead" width="24" height="9" locked="1">
  <data encoding="csv">
0,0,0,0,0,0,0,0,0,0,0,0,0,0,0,0,0,0,0,0,0,0,0,0,
0,0,0,0,0,0,0,0,0,0,0,0,0,0,0,0,0,0,0,0,0,0,0,0,
0,0,0,117,118,0,0,0,117,118,0,0,0,117,118,0,0,0,0,0,0,117,118,0,
0,0,0,137,138,0,0,0,137,138,0,0,0,137,138,0,0,0,0,0,0,137,138,0,
0,0,0,0,0,0,0,0,0,0,0,0,0,0,0,194,195,0,0,0,0,0,0,0,
0,0,0,0,0,0,0,0,0,0,0,0,0,0,0,0,0,12,0,0,0,0,0,0,
0,0,0,0,0,0,0,0,0,0,0,0,0,0,0,0,0,0,0,0,0,0,0,0,
0,0,0,0,0,0,0,0,0,0,0,0,0,0,0,0,0,0,0,0,0,0,0,0,
0,0,0,0,0,0,0,0,0,0,0,0,0,0,0,0,0,0,0,0,0,0,0,0
</data>
 </layer>
</map>
